assets/svg/empty.svg

<svg fill="none" height="300" viewBox="0 0 300 300" width="300" xmlns="http://www.w3.org/2000/svg"><path d="m150.3 280.658c76.712 0 138.899-35.906 138.899-80.197 0-44.292-62.187-80.197-138.899-80.197-76.7126 0-138.9001 35.905-138.9001 80.197 0 44.291 62.1875 80.197 138.9001 80.197z" fill="#f5f5f5"/><path d="m68.1328 192.379 89.1372 51.462 74.765-43.156-89.138-51.461z" fill="#e0e0e0"/><path d="m227.063 195.428-67.697 39.09-76.2332-44.119 67.6972-39.081z" fill="#516eb4"/><path d="m227.063 195.428-67.697 39.09-76.2332-44.119 67.6972-39.081z" fill="#000" opacity=".5"/><path d="m150.83 98.3333v52.9847l-67.6972 39.08v-52.975z" fill="#516eb4"/><path d="m150.83 98.3333v52.9847l-67.6972 39.08v-52.975z" fill="#000" opacity=".23"/><path d="m159.366 181.532v52.985l-76.2332-44.119v-52.975z" fill="#516eb4"/><path d="m159.366 181.532v52.985l-76.2332-44.119v-52.975z" fill="#000" opacity=".38"/><path d="m227.064 142.443v52.985l-76.233-44.11v-52.9847z" fill="#516eb4"/><path d="m227.064 142.443v52.985l-76.233-44.11v-52.9847z" fill="#000" opacity=".4"/><path d="m227.064 195.428v-52.985l-67.698 39.089v52.985z" fill="#516eb4"/><path d="m227.064 195.428v-52.985l-67.698 39.089v52.985z" fill="#000" opacity=".23"/><path d="m150.831 98.3331.091-29.3331 76.05 44.165.092 29.278z" fill="#516eb4"/><path d="m150.831 98.3331.091-29.3331 76.05 44.165.092 29.278z" fill="#000" opacity=".2"/><path d="m159.366 181.533 6.351-25.662 67.083-38.732-5.736 25.304z" fill="#516eb4"/><path d="m159.366 181.533 6.351-25.662 67.083-38.732-5.736 25.304z" fill="#000" opacity=".3"/><path d="m83.1329 137.422-8.0767-26.616 67.6978-39.0802 8.076 26.6073z" fill="#516eb4"/><path d="m83.1329 137.422-8.0767-26.616 67.6978-39.0802 8.076 26.6073z" fill="#000" opacity=".1"/><path d="m83.1328 137.422-15.9331-21.999 76.2423 44.109 15.924 22z" fill="#516eb4"/><path d="m83.1328 137.422-15.9331-21.999 76.2423 44.109 15.924 22z" fill="#000" opacity=".45"/><g fill="#fff"><g opacity=".7"><path d="m179.301 218.758c-.11.001-.216-.043-.295-.12s-.125-.182-.127-.293v-9.324c.002-.112.047-.218.126-.296.079-.079.185-.124.296-.127.11.003.216.048.293.127s.12.185.12.296v9.324c0 .11-.043.215-.121.293-.077.077-.182.12-.292.12z"/><path d="m178.08 212.251c-.055.009-.111.009-.165 0-.1-.046-.179-.129-.22-.231-.041-.103-.041-.217-.001-.319l1.487-3.424 1.652 1.909c.059.086.085.19.072.293s-.063.198-.142.266c-.078.068-.179.105-.283.103-.104-.001-.204-.041-.28-.111l-.78-.918-.918 2.203c-.04.076-.101.138-.176.179s-.161.058-.246.05z"/><path d="m183.146 216.565c-.11-.002-.215-.048-.292-.127s-.121-.185-.121-.295v-9.316c0-.109.044-.215.121-.292.078-.077.183-.121.292-.121.11 0 .215.044.292.121.078.077.121.183.121.292v9.307c.002.055-.008.11-.028.162s-.05.099-.089.139c-.038.04-.084.072-.135.094-.05.023-.105.035-.161.036z"/><path d="m181.925 210.058c-.054.008-.11.008-.165 0-.05-.022-.096-.054-.134-.094-.038-.039-.067-.086-.087-.137-.02-.052-.029-.106-.027-.161s.014-.109.037-.159l1.478-3.469 1.652 1.899c.076.079.119.185.119.294 0 .11-.043.215-.119.294-.039.039-.084.07-.135.091-.05.021-.104.031-.159.031-.054 0-.109-.01-.159-.031s-.096-.052-.135-.091l-.78-.918-.917 2.203c-.038.088-.106.161-.191.206s-.183.06-.278.042z"/></g><g opacity=".7"><path d="m168.205 225.082c-.157.003-.312-.035-.45-.11-.166-.106-.3-.255-.389-.431s-.129-.373-.116-.569v-1.148c.003-.11.048-.215.127-.292s.185-.121.296-.121c.109 0 .214.044.292.121.077.078.121.183.121.292v1.148c0 .165 0 .257.082.275.083.018.129 0 .266-.073.259-.239.462-.531.597-.856.135-.324.197-.675.184-1.026v-4.773c0-.109.043-.214.121-.292.077-.077.182-.121.292-.121.109 0 .214.044.292.121.077.078.121.183.121.292v4.773c.02.496-.076.989-.282 1.44s-.515.848-.902 1.157c-.197.122-.422.188-.652.193z"/><path d="m163.827 221.237v-.716c.109-1.838.646-3.626 1.569-5.219.922-1.594 2.205-2.95 3.745-3.959 1.505-.863 2.937-.992 4.038-.349.588.403 1.056.956 1.356 1.602.301.646.422 1.36.351 2.069v.239zm7.81-9.858c-.735.034-1.449.255-2.074.643-1.32.868-2.437 2.01-3.276 3.348-.84 1.338-1.381 2.841-1.588 4.407l9.334-5.396c.04-.532-.059-1.065-.285-1.547-.227-.483-.575-.898-1.009-1.207-.34-.178-.719-.263-1.102-.248z"/></g><path d="m67.1997 115.423 76.2423 44.109 15.924 22-16.768-21.219z" opacity=".7"/><path d="m227.064 142.443-67.698 39.089v52.985l1.267-51.92z" opacity=".7"/></g><path d="m127.862 127.798c6.916-1.005 13.233-5.484 17.268-11.115 1.881-2.631 3.267-5.586 4.089-8.72.873-2.931 1.016-6.032.418-9.0315-1.245-5.0184-5.862-7.9892-10.742-8.6108-2.476-.3277-4.994-.0807-7.361.7221-2.454.8471-4.583 2.4453-6.089 4.5705-.944 1.1322-1.538 2.5177-1.709 3.9854-.014.5753.187 1.1343.565 1.5663.377.432.902.705 1.471.765 1.463.124 2.926-.25 4.153-1.061 1.497-.844 2.815-1.9742 3.881-3.327 2.286-2.8375 3.996-6.0983 5.035-9.5979.728-3.003.728-6.138 0-9.141-.554-3.1412-1.981-6.0603-4.117-8.4187-2.449-2.2398-5.556-3.6164-8.852-3.9215-3.28-.4533-6.62-.1405-9.76.9141-1.38.4207-2.658 1.124-3.754 2.0658-.781.7313-1.672 1.9379-1.354 3.1262.318 1.1884 2.045 1.7185 3.217 1.5631 1.735-.327 3.325-1.1934 4.544-2.4772 1.359-1.3458 2.514-2.8858 3.426-4.5704.678-1.2107 1.032-2.5777 1.027-3.9672-.118-5.7953-6.489-9.5431-11.478-10.6035-1.347-.283-2.726-.3753-4.099-.2742-.463 0-.181.7679.191.7404 2.685-.1227 5.353.4835 7.725 1.7551 2.34 1.0817 4.305 2.842 5.644 5.0549.596 1.091.891 2.3231.852 3.5675-.038 1.2445-.408 2.4559-1.07 3.5076-.89 1.5589-1.998 2.9812-3.29 4.2231-1.082.9872-2.727 2.1298-4.244 2.0201-.251-.0005-.496-.072-.708-.2061-.212-.1342-.383-.3256-.492-.5525-.046-.3002-.021-.607.072-.8958.093-.2889.252-.5519.464-.7679.803-.8693 1.795-1.539 2.899-1.9562 2.727-1.1399 5.679-1.628 8.625-1.4259 3.036.0552 5.988 1.0091 8.488 2.7422 2.178 1.8189 3.725 4.2869 4.417 7.0477.877 2.8046 1.149 5.765.8 8.6839-.54 2.9371-1.662 5.7349-3.299 8.2268-1.682 2.7971-3.79 5.4846-6.953 6.5815-.781.283-2.417.695-2.726-.448-.309-1.1426.582-2.5503 1.154-3.4369 1.266-2.0042 3.112-3.5705 5.289-4.4882 2.101-.8471 4.37-1.1913 6.626-1.0055 4.28.3199 8.624 2.5686 10.115 6.8465.747 2.5571.829 5.2641.236 7.8611-.535 2.847-1.552 5.581-3.008 8.081-3.132 5.312-7.875 9.474-13.532 11.874-1.345.585-2.727 1.078-4.135 1.535-.146.055-.082.421.081.393z" fill="#e0e0e0"/><path d="m98.4896 48.2977c-3.6638-.2621-8.7107 2.5853-6.9154 4.6643s6.5582-1.2836 6.5582-1.2836-.4488 4.2033 1.1083 4.6824c1.5573.4791 3.6643-3.5344 2.1063-6.1016.751.2922 1.565.3924 2.366.2912.8-.1011 1.562-.4003 2.214-.8697 2.217-1.609-.128-3.1276-3.251-2.8564 0 0 2.234-7.2315-2.281-5.8485-2.2626.678-3.0595 3.2904-1.9054 7.3219z" fill="#516eb4"/><path d="m98.4896 48.2977c-3.6638-.2621-8.7107 2.5853-6.9154 4.6643s6.5582-1.2836 6.5582-1.2836-.4488 4.2033 1.1083 4.6824c1.5573.4791 3.6643-3.5344 2.1063-6.1016.751.2922 1.565.3924 2.366.2912.8-.1011 1.562-.4003 2.214-.8697 2.217-1.609-.128-3.1276-3.251-2.8564 0 0 2.234-7.2315-2.281-5.8485-2.2626.678-3.0595 3.2904-1.9054 7.3219z" fill="#fff" opacity=".65"/><path d="m113.094 102.517c-.13-.128-.268-.248-.413-.36-.207-.159-.425-.313-.632-.466-.201-.146-.412-.279-.631-.396-.127-.07-.257-.133-.39-.189-.184-.086-.389-.119-.59-.094-.053.001-.105.017-.149.045-.045.028-.081.068-.106.115-.024.047-.035.1-.032.153.004.053.021.104.051.147.162.176.364.31.59.39l.319.171c.218.13.413.278.59.425.177.148.413.289.59.437.305.247.645.446 1.01.59.016.009.034.014.053.014s.037-.005.053-.014c.301-.236-.142-.797-.313-.968z" fill="#455a64"/></svg>

<svg width="300" height="300" viewBox="0 0 300 300" fill="none" xmlns="http://www.w3.org/2000/svg">
<path d="M150.3 280.658C227.012 280.658 289.199 244.752 289.199 200.461C289.199 156.169 227.012 120.264 150.3 120.264C73.5874 120.264 11.3999 156.169 11.3999 200.461C11.3999 244.752 73.5874 280.658 150.3 280.658Z" fill="#F5F5F5"/>
<path d="M68.1328 192.379L157.27 243.841L232.035 200.685L142.897 149.224L68.1328 192.379Z" fill="#E0E0E0"/>
<path d="M227.063 195.428L159.366 234.518L83.1328 190.399L150.83 151.318L227.063 195.428Z" fill="#516EB4"/>
<path opacity="0.5" d="M227.063 195.428L159.366 234.518L83.1328 190.399L150.83 151.318L227.063 195.428Z" fill="black"/>
<path d="M150.83 98.3333V151.318L83.1328 190.398V137.423L150.83 98.3333Z" fill="#516EB4"/>
<path opacity="0.23" d="M150.83 98.3333V151.318L83.1328 190.398V137.423L150.83 98.3333Z" fill="black"/>
<path d="M159.366 181.532V234.517L83.1328 190.398V137.423L159.366 181.532Z" fill="#516EB4"/>
<path opacity="0.38" d="M159.366 181.532V234.517L83.1328 190.398V137.423L159.366 181.532Z" fill="black"/>
<path d="M227.064 142.443V195.428L150.831 151.318V98.3333L227.064 142.443Z" fill="#516EB4"/>
<path opacity="0.4" d="M227.064 142.443V195.428L150.831 151.318V98.3333L227.064 142.443Z" fill="black"/>
<path d="M227.064 195.428V142.443L159.366 181.532V234.517L227.064 195.428Z" fill="#516EB4"/>
<path opacity="0.23" d="M227.064 195.428V142.443L159.366 181.532V234.517L227.064 195.428Z" fill="black"/>
<path d="M150.831 98.3331L150.922 69L226.972 113.165L227.064 142.443L150.831 98.3331Z" fill="#516EB4"/>
<path opacity="0.2" d="M150.831 98.3331L150.922 69L226.972 113.165L227.064 142.443L150.831 98.3331Z" fill="black"/>
<path d="M159.366 181.533L165.717 155.871L232.8 117.139L227.064 142.443L159.366 181.533Z" fill="#516EB4"/>
<path opacity="0.3" d="M159.366 181.533L165.717 155.871L232.8 117.139L227.064 142.443L159.366 181.533Z" fill="black"/>
<path d="M83.1329 137.422L75.0562 110.806L142.754 71.7258L150.83 98.3331L83.1329 137.422Z" fill="#516EB4"/>
<path opacity="0.1" d="M83.1329 137.422L75.0562 110.806L142.754 71.7258L150.83 98.3331L83.1329 137.422Z" fill="black"/>
<path d="M83.1328 137.422L67.1997 115.423L143.442 159.532L159.366 181.532L83.1328 137.422Z" fill="#516EB4"/>
<path opacity="0.45" d="M83.1328 137.422L67.1997 115.423L143.442 159.532L159.366 181.532L83.1328 137.422Z" fill="black"/>
<g opacity="0.7">
<path d="M179.301 218.758C179.191 218.759 179.085 218.715 179.006 218.638C178.927 218.561 178.881 218.456 178.879 218.345V209.021C178.881 208.909 178.926 208.803 179.005 208.725C179.084 208.646 179.19 208.601 179.301 208.598C179.411 208.601 179.517 208.646 179.594 208.725C179.671 208.804 179.714 208.91 179.714 209.021V218.345C179.714 218.455 179.671 218.56 179.593 218.638C179.516 218.715 179.411 218.758 179.301 218.758Z" fill="white"/>
<path d="M178.08 212.251C178.025 212.26 177.969 212.26 177.915 212.251C177.815 212.205 177.736 212.122 177.695 212.02C177.654 211.917 177.654 211.803 177.694 211.701L179.181 208.277L180.833 210.186C180.892 210.272 180.918 210.376 180.905 210.479C180.892 210.582 180.842 210.677 180.763 210.745C180.685 210.813 180.584 210.85 180.48 210.848C180.376 210.847 180.276 210.807 180.2 210.737L179.42 209.819L178.502 212.022C178.462 212.098 178.401 212.16 178.326 212.201C178.251 212.242 178.165 212.259 178.08 212.251Z" fill="white"/>
<path d="M183.146 216.565C183.036 216.563 182.931 216.517 182.854 216.438C182.777 216.359 182.733 216.253 182.733 216.143V206.827C182.733 206.718 182.777 206.612 182.854 206.535C182.932 206.458 183.037 206.414 183.146 206.414C183.256 206.414 183.361 206.458 183.438 206.535C183.516 206.612 183.559 206.718 183.559 206.827V216.134C183.561 216.189 183.551 216.244 183.531 216.296C183.511 216.348 183.481 216.395 183.442 216.435C183.404 216.475 183.358 216.507 183.307 216.529C183.257 216.552 183.202 216.564 183.146 216.565Z" fill="white"/>
<path d="M181.925 210.058C181.871 210.066 181.815 210.066 181.76 210.058C181.71 210.036 181.664 210.004 181.626 209.964C181.588 209.925 181.559 209.878 181.539 209.827C181.519 209.775 181.51 209.721 181.512 209.666C181.514 209.611 181.526 209.557 181.549 209.507L183.027 206.038L184.679 207.937C184.755 208.016 184.798 208.122 184.798 208.231C184.798 208.341 184.755 208.446 184.679 208.525C184.64 208.564 184.595 208.595 184.544 208.616C184.494 208.637 184.44 208.647 184.385 208.647C184.331 208.647 184.276 208.637 184.226 208.616C184.176 208.595 184.13 208.564 184.091 208.525L183.311 207.607L182.394 209.81C182.356 209.898 182.288 209.971 182.203 210.016C182.118 210.061 182.02 210.076 181.925 210.058Z" fill="white"/>
</g>
<g opacity="0.7">
<path d="M168.205 225.082C168.048 225.085 167.893 225.047 167.755 224.972C167.589 224.866 167.455 224.717 167.366 224.541C167.277 224.365 167.237 224.168 167.25 223.972V222.824C167.253 222.714 167.298 222.609 167.377 222.532C167.456 222.455 167.562 222.411 167.673 222.411C167.782 222.411 167.887 222.455 167.965 222.532C168.042 222.61 168.086 222.715 168.086 222.824V223.972C168.086 224.137 168.086 224.229 168.168 224.247C168.251 224.265 168.297 224.247 168.434 224.174C168.693 223.935 168.896 223.643 169.031 223.318C169.166 222.994 169.228 222.643 169.215 222.292V217.519C169.215 217.41 169.258 217.305 169.336 217.227C169.413 217.15 169.518 217.106 169.628 217.106C169.737 217.106 169.842 217.15 169.92 217.227C169.997 217.305 170.041 217.41 170.041 217.519V222.292C170.061 222.788 169.965 223.281 169.759 223.732C169.553 224.183 169.244 224.58 168.857 224.889C168.66 225.011 168.435 225.077 168.205 225.082Z" fill="white"/>
<path d="M163.827 221.237V220.521C163.936 218.683 164.473 216.895 165.396 215.302C166.318 213.708 167.601 212.352 169.141 211.343C170.646 210.48 172.078 210.351 173.179 210.994C173.767 211.397 174.235 211.95 174.535 212.596C174.836 213.242 174.957 213.956 174.886 214.665V214.904L163.827 221.237ZM171.637 211.379C170.902 211.413 170.188 211.634 169.563 212.022C168.243 212.89 167.126 214.032 166.287 215.37C165.447 216.708 164.906 218.211 164.699 219.777L174.033 214.381C174.073 213.849 173.974 213.316 173.748 212.834C173.521 212.351 173.173 211.936 172.739 211.627C172.399 211.449 172.02 211.364 171.637 211.379Z" fill="white"/>
</g>
<path opacity="0.7" d="M67.1997 115.423L143.442 159.532L159.366 181.532L142.598 160.313L67.1997 115.423Z" fill="white"/>
<path opacity="0.7" d="M227.064 142.443L159.366 181.532V234.517L160.633 182.597L227.064 142.443Z" fill="white"/>
<path d="M127.862 127.798C134.778 126.793 141.095 122.314 145.13 116.683C147.011 114.052 148.397 111.097 149.219 107.963C150.092 105.032 150.235 101.931 149.637 98.9315C148.392 93.9131 143.775 90.9423 138.895 90.3207C136.419 89.993 133.901 90.24 131.534 91.0428C129.08 91.8899 126.951 93.4881 125.445 95.6133C124.501 96.7455 123.907 98.131 123.736 99.5987C123.722 100.174 123.923 100.733 124.301 101.165C124.678 101.597 125.203 101.87 125.772 101.93C127.235 102.054 128.698 101.68 129.925 100.869C131.422 100.025 132.74 98.8948 133.806 97.542C136.092 94.7045 137.802 91.4437 138.841 87.9441C139.569 84.9411 139.569 81.8061 138.841 78.8031C138.287 75.6619 136.86 72.7428 134.724 70.3844C132.275 68.1446 129.168 66.768 125.872 66.4629C122.592 66.0096 119.252 66.3224 116.112 67.377C114.732 67.7977 113.454 68.501 112.358 69.4428C111.577 70.1741 110.686 71.3807 111.004 72.569C111.322 73.7574 113.049 74.2875 114.221 74.1321C115.956 73.8051 117.546 72.9387 118.765 71.6549C120.124 70.3091 121.279 68.7691 122.191 67.0845C122.869 65.8738 123.223 64.5068 123.218 63.1173C123.1 57.322 116.729 53.5742 111.74 52.5138C110.393 52.2308 109.014 52.1385 107.641 52.2396C107.178 52.2396 107.46 53.0075 107.832 52.98C110.517 52.8573 113.185 53.4635 115.557 54.7351C117.897 55.8168 119.862 57.5771 121.201 59.79C121.797 60.881 122.092 62.1131 122.053 63.3575C122.015 64.602 121.645 65.8134 120.983 66.8651C120.093 68.424 118.985 69.8463 117.693 71.0882C116.611 72.0754 114.966 73.218 113.449 73.1083C113.198 73.1078 112.953 73.0363 112.741 72.9022C112.529 72.768 112.358 72.5766 112.249 72.3497C112.203 72.0495 112.228 71.7427 112.321 71.4539C112.414 71.165 112.573 70.902 112.785 70.686C113.588 69.8167 114.58 69.147 115.684 68.7298C118.411 67.5899 121.363 67.1018 124.309 67.3039C127.345 67.3591 130.297 68.313 132.797 70.0461C134.975 71.865 136.522 74.333 137.214 77.0938C138.091 79.8984 138.363 82.8588 138.014 85.7777C137.474 88.7148 136.352 91.5126 134.715 94.0045C133.033 96.8016 130.925 99.4891 127.762 100.586C126.981 100.869 125.345 101.281 125.036 100.138C124.727 98.9954 125.618 97.5877 126.19 96.7011C127.456 94.6969 129.302 93.1306 131.479 92.2129C133.58 91.3658 135.849 91.0216 138.105 91.2074C142.385 91.5273 146.729 93.776 148.22 98.0539C148.967 100.611 149.049 103.318 148.456 105.915C147.921 108.762 146.904 111.496 145.448 113.996C142.316 119.308 137.573 123.47 131.916 125.87C130.571 126.455 129.189 126.948 127.781 127.405C127.635 127.46 127.699 127.826 127.862 127.798Z" fill="#E0E0E0"/>
<path d="M98.4896 48.2977C94.8258 48.0356 89.7789 50.883 91.5742 52.962C93.3695 55.041 98.1324 51.6784 98.1324 51.6784C98.1324 51.6784 97.6836 55.8817 99.2407 56.3608C100.798 56.8399 102.905 52.8264 101.347 50.2592C102.098 50.5514 102.912 50.6516 103.713 50.5504C104.513 50.4493 105.275 50.1501 105.927 49.6807C108.144 48.0717 105.799 46.5531 102.676 46.8243C102.676 46.8243 104.91 39.5928 100.395 40.9758C98.1324 41.6538 97.3355 44.2662 98.4896 48.2977Z" fill="#516EB4"/>
<path opacity="0.65" d="M98.4896 48.2977C94.8258 48.0356 89.7789 50.883 91.5742 52.962C93.3695 55.041 98.1324 51.6784 98.1324 51.6784C98.1324 51.6784 97.6836 55.8817 99.2407 56.3608C100.798 56.8399 102.905 52.8264 101.347 50.2592C102.098 50.5514 102.912 50.6516 103.713 50.5504C104.513 50.4493 105.275 50.1501 105.927 49.6807C108.144 48.0717 105.799 46.5531 102.676 46.8243C102.676 46.8243 104.91 39.5928 100.395 40.9758C98.1324 41.6538 97.3355 44.2662 98.4896 48.2977Z" fill="white"/>
<path d="M113.094 102.517C112.964 102.389 112.826 102.269 112.681 102.157C112.474 101.998 112.256 101.844 112.049 101.691C111.848 101.545 111.637 101.412 111.418 101.295C111.291 101.225 111.161 101.162 111.028 101.106C110.844 101.02 110.639 100.987 110.438 101.012C110.385 101.013 110.333 101.029 110.289 101.057C110.244 101.085 110.208 101.125 110.183 101.172C110.159 101.219 110.148 101.272 110.151 101.325C110.155 101.378 110.172 101.429 110.202 101.472C110.364 101.648 110.566 101.782 110.792 101.862L111.111 102.033C111.329 102.163 111.524 102.311 111.701 102.458C111.878 102.606 112.114 102.747 112.291 102.895C112.596 103.142 112.936 103.341 113.301 103.485C113.317 103.494 113.335 103.499 113.354 103.499C113.373 103.499 113.391 103.494 113.407 103.485C113.708 103.249 113.265 102.688 113.094 102.517Z" fill="#455A64"/>
</svg>
